public/img/grant-logo-1.svg

<svg width="206" height="49" viewBox="0 0 206 49" fill="none" xmlns="http://www.w3.org/2000/svg">
<path d="M205.162 48.1236H0V36.5055H205.162V48.1236Z" fill="#FFB800"/>
<path d="M0.0976562 20.3639V0H8.99883C11.1813 0 12.9267 0.582747 14.1777 1.71643C15.4579 2.85094 16.0971 4.30666 16.0971 6.13869C16.0971 7.97073 15.4579 9.45573 14.1777 10.5894C12.9267 11.7239 11.1813 12.3058 8.99883 12.3058H4.28688V20.3639H0.0976562ZM4.28688 8.72748H8.70917C10.716 8.72748 11.9079 7.82683 11.9079 6.19706C11.9079 4.56812 10.716 3.66663 8.70917 3.66663H4.28688V8.72748Z" fill="#FFB800"/>
<path d="M19.7612 7.68099C21.2744 6.19774 23.1938 5.47021 25.5502 5.47021C27.9066 5.47021 29.8268 6.19774 31.3392 7.68099C32.8524 9.16425 33.6082 10.9688 33.6082 13.0913C33.6082 15.2737 32.8524 17.0773 31.3392 18.5614C29.8268 20.0155 27.9066 20.7431 25.5502 20.7431C23.1938 20.7431 21.2744 20.0155 19.7612 18.5614C18.2488 17.0773 17.4922 15.2737 17.4922 13.0913C17.4922 10.9397 18.2488 9.13512 19.7612 7.68099ZM25.5502 17.1656C26.7138 17.1656 27.6744 16.7868 28.4301 16.0019C29.1867 15.2154 29.5655 14.2549 29.5655 13.0913C29.5655 11.9277 29.1867 10.9688 28.4301 10.2114C27.6744 9.42647 26.7138 9.04853 25.5502 9.04853C24.3866 9.04853 23.4269 9.42647 22.6711 10.2114C21.9145 10.9688 21.5366 11.9277 21.5366 13.0913C21.5366 14.2549 21.9145 15.2154 22.6711 16.0019C23.4269 16.7868 24.3866 17.1656 25.5502 17.1656Z" fill="#FFB800"/>
<path d="M38.7452 18.6489C37.2037 17.2231 36.418 15.3611 36.418 13.0638C36.418 10.764 37.2037 8.93197 38.7452 7.56524C40.3167 6.16855 42.1778 5.47021 44.3594 5.47021C45.96 5.47021 47.385 5.78976 48.6652 6.43067V9.92168C47.4141 9.33987 46.164 9.04853 44.9712 9.04853C43.6911 9.04853 42.614 9.42647 41.7425 10.1839C40.8985 10.9097 40.4623 11.8994 40.4623 13.0913C40.4623 14.2841 40.8985 15.2736 41.7708 16.0294C42.644 16.7869 43.7202 17.1656 44.9712 17.1656C46.4545 17.1656 47.7637 16.8443 48.8974 16.1751V19.6669C47.5307 20.3944 46.0183 20.7431 44.302 20.7431C42.1487 20.7431 40.2867 20.0447 38.7452 18.6489Z" fill="#FFB800"/>
<path d="M53.1289 20.3599V5.84436H57.1725L61.3908 11.2547L65.6375 5.84436H69.6811V20.3599H65.8123V11.4004L62.2057 15.9085H60.576L56.9977 11.4004V20.3599H53.1289Z" fill="#FFB800"/>
<path d="M75.5901 7.68099C77.1025 6.19774 79.0219 5.47021 81.3783 5.47021C83.7347 5.47021 85.6549 6.19774 87.1673 7.68099C88.6805 9.16425 89.4363 10.9688 89.4363 13.0913C89.4363 15.2737 88.6805 17.0773 87.1673 18.5614C85.6549 20.0155 83.7347 20.7431 81.3783 20.7431C79.0219 20.7431 77.1025 20.0155 75.5901 18.5614C74.0769 17.0773 73.3203 15.2737 73.3203 13.0913C73.3203 10.9397 74.0769 9.13512 75.5901 7.68099ZM81.3783 17.1656C82.5419 17.1656 83.5025 16.7868 84.2582 16.0019C85.0148 15.2154 85.3936 14.2549 85.3936 13.0913C85.3936 11.9277 85.0148 10.9688 84.2582 10.2114C83.5025 9.42647 82.5419 9.04853 81.3783 9.04853C80.2147 9.04853 79.255 9.42647 78.4984 10.2114C77.7418 10.9688 77.3647 11.9277 77.3647 13.0913C77.3647 14.2549 77.7418 15.2154 78.4984 16.0019C79.255 16.7868 80.2147 17.1656 81.3783 17.1656Z" fill="#FFB800"/>
<path d="M98.5752 9.27609L98.5177 11.313C98.4303 13.3198 98.3421 14.6583 97.8485 16.4037C97.1502 18.8476 95.7543 20.3899 92.8736 20.4765C92.1752 20.4765 91.6525 20.3899 91.332 20.2143V16.869C91.5651 16.9564 91.8556 16.9856 92.1752 16.9856C93.1358 16.9856 93.7467 16.4336 94.0672 15.1235C94.4159 13.7567 94.5025 12.534 94.5324 10.1202L94.619 5.84436H107.158V20.3599H103.056V9.27609H98.5752Z" fill="#FFB800"/>
<path d="M113.207 7.68099C114.72 6.19774 116.639 5.47021 118.995 5.47021C121.352 5.47021 123.271 6.19774 124.785 7.68099C126.297 9.16425 127.054 10.9688 127.054 13.0913C127.054 15.2737 126.297 17.0773 124.785 18.5614C123.271 20.0155 121.352 20.7431 118.995 20.7431C116.639 20.7431 114.72 20.0155 113.207 18.5614C111.694 17.0773 110.938 15.2737 110.938 13.0913C110.938 10.9397 111.694 9.13512 113.207 7.68099ZM118.995 17.1656C120.159 17.1656 121.12 16.7868 121.875 16.0019C122.632 15.2154 123.009 14.2549 123.009 13.0913C123.009 11.9277 122.632 10.9688 121.875 10.2114C121.12 9.42647 120.159 9.04853 118.995 9.04853C117.832 9.04853 116.871 9.42647 116.116 10.2114C115.359 10.9688 114.98 11.9277 114.98 13.0913C114.98 14.2549 115.359 15.2154 116.116 16.0019C116.871 16.7868 117.832 17.1656 118.995 17.1656Z" fill="#FFB800"/>
<path d="M129.016 24.054V16.9282H130.878C131.984 15.211 132.566 12.4774 132.623 8.66514L132.682 5.84436H144.899V16.9282H147.284V24.054H143.415V20.3599H132.943V24.054H129.016ZM140.884 16.9282V9.27608H136.346C136.346 12.3017 135.91 14.8614 135.066 16.9282H140.884Z" fill="#FFB800"/>
<path d="M152.218 18.6489C150.676 17.2522 149.891 15.3903 149.891 13.0913C149.891 10.9397 150.589 9.13512 151.985 7.68099C153.382 6.19774 155.214 5.47021 157.454 5.47021C159.577 5.47021 161.235 6.22765 162.486 7.71091C163.738 9.19416 164.377 10.997 164.377 13.1503V14.2265H153.963C154.399 16.205 156.261 17.2523 158.821 17.2523C160.45 17.2523 161.992 16.8144 163.475 15.972V19.2598C162.166 20.2478 160.334 20.7431 157.948 20.7431C155.68 20.7431 153.759 20.0447 152.218 18.6489ZM160.334 11.608C160.247 10.0082 159.111 8.69884 157.279 8.69884C155.417 8.69884 154.166 9.89253 153.963 11.608H160.334Z" fill="#FFB800"/>
<path d="M165.887 20.3599L172.141 12.6215L166.526 5.84436H171.153L175.574 11.3129V5.84436H179.617V11.3129L184.009 5.84436H188.635L183.022 12.6215L189.305 20.3599H184.417L179.617 14.1638V20.3599H175.574V14.1638L170.744 20.3599H165.887Z" fill="#FFB800"/>
<path d="M192.414 20.3599V5.84436H196.516V10.0911H200.007C203.643 10.0911 206 12.0979 206 15.2109C206 16.695 205.505 17.917 204.487 18.905C203.469 19.8656 202.044 20.3599 200.21 20.3599H192.414ZM196.516 17.1894H199.368C200.967 17.1894 201.898 16.4629 201.898 15.181C201.898 13.9033 200.967 13.1458 199.368 13.1458H196.516V17.1894Z" fill="#FFB800"/>
</svg>

<svg width="206" height="49" fill="none" xmlns="http://www.w3.org/2000/svg"><path d="M205.162 48.124H0V36.505h205.162v11.619zM.098 20.364V0h8.9c2.183 0 3.929.583 5.18 1.716 1.28 1.135 1.92 2.59 1.92 4.423 0 1.832-.64 3.317-1.92 4.45-1.251 1.135-2.997 1.717-5.18 1.717h-4.71v8.058H.097zM4.287 8.727h4.422c2.007 0 3.199-.9 3.199-2.53 0-1.629-1.192-2.53-3.199-2.53H4.287v5.06zm15.474-1.046c1.513-1.483 3.433-2.21 5.79-2.21 2.356 0 4.276.727 5.788 2.21 1.513 1.483 2.27 3.288 2.27 5.41 0 2.183-.757 3.986-2.27 5.47-1.512 1.454-3.432 2.182-5.789 2.182-2.356 0-4.276-.727-5.789-2.182-1.512-1.484-2.269-3.287-2.269-5.47 0-2.151.757-3.956 2.27-5.41zm5.79 9.485c1.163 0 2.123-.38 2.88-1.164.756-.787 1.134-1.747 1.134-2.91 0-1.164-.378-2.123-1.135-2.88-.756-.786-1.716-1.163-2.88-1.163-1.163 0-2.123.377-2.879 1.162-.756.758-1.134 1.717-1.134 2.88 0 1.164.378 2.124 1.134 2.91.756.786 1.716 1.165 2.88 1.165zm13.194 1.483c-1.541-1.426-2.327-3.288-2.327-5.585 0-2.3.786-4.132 2.327-5.499C40.317 6.17 42.178 5.47 44.36 5.47c1.601 0 3.026.32 4.306.96v3.492c-1.25-.582-2.501-.873-3.694-.873-1.28 0-2.357.377-3.228 1.135-.845.726-1.28 1.715-1.28 2.907 0 1.193.435 2.183 1.308 2.938.873.758 1.95 1.137 3.2 1.137 1.484 0 2.793-.322 3.926-.99v3.49c-1.366.728-2.879 1.077-4.595 1.077-2.153 0-4.015-.698-5.557-2.094zm14.384 1.711V5.844h4.044l4.218 5.41 4.247-5.41h4.043V20.36h-3.869V11.4l-3.606 4.508h-1.63L56.998 11.4v8.96h-3.87zM75.59 7.681c1.513-1.483 3.432-2.21 5.788-2.21 2.357 0 4.277.727 5.79 2.21 1.512 1.483 2.268 3.288 2.268 5.41 0 2.183-.756 3.986-2.269 5.47-1.512 1.454-3.432 2.182-5.789 2.182-2.356 0-4.275-.727-5.788-2.182-1.513-1.484-2.27-3.287-2.27-5.47 0-2.151.757-3.956 2.27-5.41zm5.788 9.485c1.164 0 2.124-.38 2.88-1.164.757-.787 1.136-1.747 1.136-2.91 0-1.164-.38-2.123-1.136-2.88-.755-.786-1.716-1.163-2.88-1.163-1.163 0-2.123.377-2.88 1.162-.756.758-1.133 1.717-1.133 2.88 0 1.164.377 2.124 1.133 2.91.757.786 1.717 1.165 2.88 1.165zm17.197-7.89l-.057 2.037c-.088 2.007-.176 3.345-.67 5.09-.698 2.445-2.094 3.987-4.974 4.074-.699 0-1.221-.087-1.542-.263V16.87c.233.087.524.117.843.117.96 0 1.572-.552 1.892-1.863.349-1.366.436-2.589.465-5.003l.087-4.276h12.539V20.36h-4.102V9.276h-4.48zm14.632-1.595c1.513-1.483 3.432-2.21 5.788-2.21 2.357 0 4.276.727 5.79 2.21 1.512 1.483 2.269 3.288 2.269 5.41 0 2.183-.757 3.986-2.269 5.47-1.514 1.454-3.433 2.182-5.79 2.182-2.356 0-4.275-.727-5.788-2.182-1.513-1.484-2.269-3.287-2.269-5.47 0-2.151.756-3.956 2.269-5.41zm5.788 9.485c1.164 0 2.125-.38 2.88-1.164.757-.787 1.134-1.747 1.134-2.91 0-1.164-.377-2.123-1.134-2.88-.755-.786-1.716-1.163-2.88-1.163-1.163 0-2.124.377-2.879 1.162-.757.758-1.136 1.717-1.136 2.88 0 1.164.379 2.124 1.136 2.91.755.786 1.716 1.165 2.879 1.165zm10.021 6.888v-7.126h1.862c1.106-1.717 1.688-4.45 1.745-8.263l.059-2.82h12.217v11.083h2.385v7.126h-3.869V20.36h-10.472v3.694h-3.927zm11.868-7.126V9.276h-4.538c0 3.026-.436 5.585-1.28 7.652h5.818zm11.334 1.721c-1.542-1.397-2.327-3.259-2.327-5.558 0-2.151.698-3.956 2.094-5.41 1.397-1.483 3.229-2.21 5.469-2.21 2.123 0 3.781.757 5.032 2.24 1.252 1.483 1.891 3.286 1.891 5.44v1.075h-10.414c.436 1.979 2.298 3.026 4.858 3.026 1.629 0 3.171-.438 4.654-1.28v3.288c-1.309.988-3.141 1.483-5.527 1.483-2.268 0-4.189-.698-5.73-2.094zm8.116-7.041c-.087-1.6-1.223-2.91-3.055-2.91-1.862 0-3.113 1.195-3.316 2.91h6.371zm5.553 8.752l6.254-7.739-5.615-6.777h4.627l4.421 5.469V5.844h4.043v5.469l4.392-5.469h4.626l-5.613 6.777 6.283 7.739h-4.888l-4.8-6.196v6.196h-4.043v-6.196l-4.83 6.196h-4.857zm26.527 0V5.844h4.102v4.247h3.491c3.636 0 5.993 2.007 5.993 5.12 0 1.484-.495 2.706-1.513 3.694-1.018.96-2.443 1.455-4.277 1.455h-7.796zm4.102-3.17h2.852c1.599 0 2.53-.727 2.53-2.009 0-1.278-.931-2.035-2.53-2.035h-2.852v4.043z" fill="#FFB800"/></svg>
